svg/u1f3df.svg

<svg viewBox="0 0 128 128" xmlns="http://www.w3.org/2000/svg">
  <path d="M43.53,5.3c0-1.08,0.6-1.48,1.75-1.48S82.89,3.68,83.5,3.68c0.6,0,1.28,0.6,1.21,1.41 c-0.07,0.81,0.07,12.23,0,12.83c-0.07,0.6-0.4,1.28-1.28,1.34c-0.87,0.07-37.68,0.2-38.42,0.2s-1.34-0.87-1.41-1.68 S43.53,5.97,43.53,5.3z" fill="#546F7B"/>
  <rect height="5.24" fill="#546F7B" width="4.77" x="48.7" y="18.66"/>
  <rect height="5.08" fill="#546F7B" width="4.54" x="75.17" y="18.87"/>
  <rect height="9.07" fill="#C9C8C7" width="33.65" x="47.49" y="6.71"/>
  <path d="M92.83,27.13c0,0,0.13-16.93,0.13-17.6s0.54-1.28,1.48-1.01s2.55,1.14,5.37,2.02s5.97,1.95,6.26,2.33 c0.46,0.61-1.96,2.24-5.46,4.12c-3.18,1.71-4.77,2.75-4.77,2.75l-0.2,8.46l-2.42,0.87L92.83,27.13z" fill="#2385F8"/>
  <path d="M109.76,35.79c0,0,0-15.72,0-16.59s1.01-1.34,1.75-1.14c0.74,0.2,2.15,1.07,4.63,2.08 c2.17,0.88,6.1,1.91,6.05,2.62c-0.08,1.01-3.26,2.31-5.11,3.5c-1.88,1.21-4.7,2.55-4.7,2.55v10.48L109.76,35.79z" fill="#4BC5FC"/>
  <path d="M36.08,26.24c0,0,0-17.07,0-17.95c0-0.88-1.18-0.92-2.1-0.76c-0.99,0.18-2.48,1.34-4.82,1.86 s-5.67,0.84-6.17,1.7c-0.3,0.52,1.52,2.81,4.09,4.09s6.49,3.22,6.49,3.22v8.71L36.08,26.24z" fill="#2385F8"/>
  <path d="M19.25,33.14c0,0-0.06-14.79-0.06-15.08c0-0.29-0.7-0.76-1.75-0.35c-1.05,0.41-10.78,3.52-10.93,4.21 c-0.27,1.28,5.13,3.19,6.42,3.77s3.75,1.72,3.75,1.72v8.3L19.25,33.14z" fill="#4BC5FC"/>
  <path d="M5.19,53.86c-0.74-6.65,7.2-33.04,58.32-32.5c54.15,0.58,58.96,29.02,58.67,32.34 c-0.2,2.31-0.62,24.12-0.62,24.12S63.94,95.87,63.94,95.29c0-0.58-51.98-17.04-51.98-17.04S5.75,58.89,5.19,53.86z" fill="#EE3E23"/>
  <path d="M62.62,21.36c0,0,0.62-0.02,1.49,0s1.53,0.04,1.53,0.04l0.07,37.57l-3.1-0.07 C62.6,58.91,62.73,21.47,62.62,21.36z" fill="#AE111F"/>
  <polygon points="100.94,28.36 82.43,61.25 84.98,62.21 103.47,29.59 " fill="#AE111F"/>
  <path d="M122.31,54.15l-22.86,16.8l0.69,2.48l21.97-15.91C122.1,57.53,122.44,53.26,122.31,54.15z" fill="#AE111F"/>
  <polygon points="25.94,27.87 42.56,62.28 44.29,59.94 28.41,26.81 " fill="#AE111F"/>
  <path d="M5.51,49.98l23.84,20.56l-1.38,2L5.16,53.26c0,0-0.01-0.96,0.07-1.69 C5.32,50.83,5.51,49.98,5.51,49.98z" fill="#AE111F"/>
  <path d="M25.37,78.34c0,0-0.29-2.96,0.39-5.61c1.16-4.55,9.48-17.61,38.8-17.13 c29.12,0.48,37.64,12.58,37.73,18.87c0.1,6.29-3.39,6.19-3.39,6.19l-36.86,9.38l-18.8-6L25.37,78.34z" fill="#B7D016"/>
  <path d="M85.88,67.98c0-0.83-0.67-1.49-1.5-1.49H43.26c-0.83,0-1.5,0.67-1.5,1.5l-0.03,16.06l3,0.01 l0.03-14.56h17.82v16.5h2v-16.5h18.31l0.09,14.38l3-0.02L85.88,67.98z" fill="#FFFFFF"/>
  <path d="M5.38,50.47c0,0-0.96,2.08-0.9,6.58c0.03,1.83,0,32.73,0,32.73l8.97,13.69l15.69,11.02l24.65,7.47 H73.2l17.55-2.61l19.79-12.51l12.32-14.94c0,0-0.03-35.99-0.07-36.54c-0.32-4.39-1.19-5.56-1.19-5.56s4.43,14.72-19,26.61 c-8.89,4.51-22.92,8.12-39.07,7.94C39.69,84.09,25.38,76.69,18.6,71.2C4.11,59.46,5.38,50.47,5.38,50.47z" fill="#B0B0B0"/>
  <path d="M4.54,93.71c0,0,5.22,12.28,21.61,21.53c8.92,5.03,21.27,9.45,37.58,9.86 c14.73,0.37,29.17-3.91,37.93-9.24c16.19-9.86,21.5-22.63,21.5-22.63L123.11,87c0,0-12.76,32.64-58.91,33.03 c-15.46,0.13-28.43-4.09-37.88-9.97C11.37,100.75,4.46,88.09,4.46,88.09L4.54,93.71z" fill="#858585"/>
  <path d="M4.65,64.35c0,0,10.45,26.25,59.03,26.57c46.18,0.3,59.23-24.49,59.23-24.49l-0.08-5.38 c0,0-11.67,27.36-59.04,26.97C14.08,87.62,4.5,58.59,4.5,58.59L4.65,64.35z" fill="#858585"/>
  <path d="M13.59,70.05" fill="none" stroke="#858585" stroke-miterlimit="10"/>
  <path d="M29.21,116.93c-0.32-0.5,0.24-24.17,0.24-25.22c0-1.49,1.23-4.21,4.99-2.98 c3.52,1.15,4.3,4.52,4.3,6.46s0.18,23.5,0.18,24.03s0.15,1.75-0.79,1.5c-0.42-0.12-3.1-0.87-4.85-1.64 C32.15,118.56,29.53,117.42,29.21,116.93z" fill="#2F2F2F"/>
  <path d="M10.52,102.72c-0.13-0.52-0.09-19.59-0.09-20.83c0-2.46,2.14-4.34,4.67-2.85 c2.53,1.49,3.82,4.21,3.89,7.84c0.06,3.63,0.09,22.25,0.15,22.77c0.06,0.52-0.25,0.88-0.84,0.45c-0.17-0.12-3.44-2.53-4.8-3.89 C12.14,104.86,10.52,102.72,10.52,102.72z" fill="#2F2F2F"/>
  <path d="M88.89,121.49c-0.64-0.46-0.39-23.3-0.39-24.86s0.46-6.5,5.06-7.32c5.06-0.91,4.54,4.41,4.6,6.16 c0.06,1.56,0.31,21.69,0.15,22.2c-0.08,0.26-2.37,1.31-4.63,2.26C91.8,120.71,89.03,121.58,88.89,121.49z" fill="#2F2F2F"/>
  <path d="M108.52,111.06c-0.45-0.08-0.07-21.86,0.02-24.12c0.1-2.33,1.15-6.48,4.45-7.69 c3.18-1.17,4.16,0.72,4.16,3.77c0,1.88-0.21,19.53-0.27,19.98c-0.04,0.28-1.39,1.73-3.21,3.6 C111.75,108.58,108.74,111.1,108.52,111.06z" fill="#2F2F2F"/>
  <path d="M13.54,47.21c-0.07,0.71,3.44,3.76,3.87,3.72s3-2.79,3-3.36s-3.52-3.68-3.75-3.64 C16.12,44.03,13.58,46.73,13.54,47.21z" fill="#FF7879"/>
  <path d="M29.49,52.45c0.03,0.54,2.28,4.71,3.12,4.68c1.05-0.04,3.84-2.22,3.78-2.73s-2.43-4.38-3.15-4.47 C32.53,49.85,29.46,51.86,29.49,52.45z" fill="#FF7879"/>
  <path d="M18.6,35.98c0.02,0.38,2.51,4.02,2.96,3.98c0.45-0.04,3.23-1.99,3.29-2.51 c0.06-0.59-2.27-3.93-2.84-4.06C21.44,33.26,18.56,35.25,18.6,35.98z" fill="#FF7879"/>
  <path d="M37.54,38.61c-0.03,0.29,1.99,5.15,2.6,5.11c0.85-0.06,3.76-1.08,3.84-1.6 c0.08-0.53-1.89-5.37-2.25-5.41S37.58,38.21,37.54,38.61z" fill="#FF7879"/>
  <path d="M44.88,30.95c-0.13,0.54,0.96,3.42,1.22,3.93c0.32,0.65,0.89,1.1,1.99,0.81 c0.83-0.22,2.68-0.89,2.76-1.58c0.08-0.69-1.5-4.46-1.99-4.71S45.04,30.3,44.88,30.95z" fill="#FF7879"/>
  <path d="M54.13,34.36c0.37,0.23,4.37-0.11,4.5-0.41c0.32-0.73-0.12-5.19-0.57-5.52 c-0.45-0.32-4.31-0.01-4.5,0.37C52.99,29.93,53.48,33.95,54.13,34.36z" fill="#FF7879"/>
  <path d="M49.1,46.69c-0.49,0.46,1.09,5.01,1.71,5.31c0.72,0.35,4.06-0.88,4.26-1.3 c0.24-0.54-1.39-4.98-1.85-5.12C52.32,45.32,49.7,46.14,49.1,46.69z" fill="#FF7879"/>
  <path d="M70.11,32.15c-0.91,0.7-0.91,5.54-0.46,6.33c0.37,0.65,4.11,0.74,4.66,0.23 c0.31-0.29,0.79-5.68,0.46-6.19C74.45,32.01,70.71,31.68,70.11,32.15z" fill="#FF7879"/>
  <path d="M79.43,27.25c-0.55,0.55-1.2,5.86-0.83,6.28c0.56,0.63,4.02,1.02,4.57,0.69 c0.55-0.32,1.62-5.59,1.34-6.37C84.24,27.07,80.06,26.63,79.43,27.25z" fill="#FF7879"/>
  <path d="M80.31,47.3c-0.69,0.23-2.51,5.72-2.4,6.19c0.28,1.2,3.97,2.17,4.71,1.75 c0.43-0.24,2.31-5.63,2.22-6.1C84.74,48.69,81.04,47.06,80.31,47.3z" fill="#FF7879"/>
  <path d="M105.66,38.1c-1.06,0.17-3.74,4.53-3.74,5.22c0,0.69,2.86,2.63,3.42,2.54 c0.55-0.09,3.79-5.08,3.79-5.45C109.13,40.04,106.54,37.96,105.66,38.1z" fill="#FF7879"/>
  <path d="M105.76,54.45c-0.83,0-4.85,4.06-4.85,4.66c0,0.6,2.31,2.82,3.09,2.91s4.89-4.11,4.94-4.85 C108.99,56.44,106.59,54.45,105.76,54.45z" fill="#FF7879"/>
  <path d="M51.45,124.05c-0.41-0.41,0.05-16.67,0.12-19.35c0.08-3.25,2.36-11.78,12.42-11.94 c10.07-0.16,12.99,9.1,12.99,12.1c0,3,0.17,18.89-0.2,19.38c-0.16,0.22-5.24,1.1-13.04,1.02C56.34,125.18,51.86,124.45,51.45,124.05 z" fill="#2F2F2F"/>
</svg>

<svg viewBox="0 0 128 128" xmlns="http://www.w3.org/2000/svg">
  <defs/>
  <path d="M43.53,5.3 C43.53,4.22 44.13,3.82 45.28,3.82 C46.43,3.82 82.89,3.68 83.5,3.68 C84.1,3.68 84.78,4.28 84.71,5.09 C84.64,5.9 84.78,17.32 84.71,17.92 C84.64,18.52 84.31,19.2 83.43,19.26 C82.56,19.33 45.75,19.46 45.01,19.46 C44.27,19.46 43.67,18.59 43.6,17.78 C43.53,16.97 43.53,5.97 43.53,5.3 Z" fill="#546F7B"/>
  <path d="M48.7,18.66 L53.47,18.66 L53.47,23.9 L48.7,23.9 L48.7,18.66 Z" fill="#546F7B"/>
  <path d="M75.17,18.87 L79.71,18.87 L79.71,23.95 L75.17,23.95 L75.17,18.87 Z" fill="#546F7B"/>
  <path d="M47.49,6.71 L81.14,6.71 L81.14,15.78 L47.49,15.78 L47.49,6.71 Z" fill="#C9C8C7"/>
  <path d="M92.83,27.13 C92.83,27.13 92.96,10.2 92.96,9.53 C92.96,8.86 93.5,8.25 94.44,8.52 C95.38,8.79 96.99,9.66 99.81,10.54 C102.63,11.42 105.78,12.49 106.07,12.87 C106.53,13.48 104.11,15.11 100.61,16.99 C97.43,18.7 95.84,19.74 95.84,19.74 L95.64,28.2 L93.22,29.07 L92.83,27.13 Z" fill="#2385F8"/>
  <path d="M109.76,35.79 C109.76,35.79 109.76,20.07 109.76,19.2 C109.76,18.33 110.77,17.86 111.51,18.06 C112.25,18.26 113.66,19.13 116.14,20.14 C118.31,21.02 122.24,22.05 122.19,22.76 C122.11,23.77 118.93,25.07 117.08,26.26 C115.2,27.47 112.38,28.81 112.38,28.81 L112.38,39.29 L109.76,35.79 Z" fill="#4BC5FC"/>
  <path d="M36.08,26.24 C36.08,26.24 36.08,9.17 36.08,8.29 C36.08,7.41 34.9,7.37 33.98,7.53 C32.99,7.71 31.5,8.87 29.16,9.39 C26.82,9.91 23.49,10.23 22.99,11.09 C22.69,11.61 24.51,13.9 27.08,15.18 C29.65,16.46 33.57,18.4 33.57,18.4 L33.57,27.11 L36.08,26.24 Z" fill="#2385F8"/>
  <path d="M19.25,33.14 C19.25,33.14 19.19,18.35 19.19,18.06 C19.19,17.77 18.49,17.3 17.44,17.71 C16.39,18.12 6.66,21.23 6.51,21.92 C6.24,23.2 11.64,25.11 12.93,25.69 C14.22,26.27 16.68,27.41 16.68,27.41 L16.68,35.71 L19.25,33.14 Z" fill="#4BC5FC"/>
  <path d="M5.19,53.86 C4.45,47.21 12.39,20.82 63.51,21.36 C117.66,21.94 122.47,50.38 122.18,53.7 C121.98,56.01 121.56,77.82 121.56,77.82 C121.56,77.82 63.94,95.87 63.94,95.29 C63.94,94.71 11.96,78.25 11.96,78.25 C11.96,78.25 5.75,58.89 5.19,53.86 Z" fill="#EE3E23"/>
  <path d="M62.62,21.36 C62.62,21.36 63.24,21.34 64.11,21.36 C64.98,21.38 65.64,21.4 65.64,21.4 L65.71,58.97 L62.61,58.9 C62.6,58.91 62.73,21.47 62.62,21.36 Z" fill="#AE111F"/>
  <path d="M100.94,28.36 L82.43,61.25 L84.98,62.21 L103.47,29.59 Z" fill="#AE111F"/>
  <path d="M122.31,54.15 L99.45,70.95 L100.14,73.43 L122.11,57.52 C122.1,57.53 122.44,53.26 122.31,54.15 Z" fill="#AE111F"/>
  <path d="M25.94,27.87 L42.56,62.28 L44.29,59.94 L28.41,26.81 Z" fill="#AE111F"/>
  <path d="M5.51,49.98 L29.35,70.54 L27.97,72.54 L5.16,53.26 C5.16,53.26 5.15,52.3 5.23,51.57 C5.32,50.83 5.51,49.98 5.51,49.98 Z" fill="#AE111F"/>
  <path d="M25.37,78.34 C25.37,78.34 25.08,75.38 25.76,72.73 C26.92,68.18 35.24,55.12 64.56,55.6 C93.68,56.08 102.2,68.18 102.29,74.47 C102.39,80.76 98.9,80.66 98.9,80.66 L62.04,90.04 L43.24,84.04 L25.37,78.34 Z" fill="#B7D016"/>
  <path d="M85.88,67.98 C85.88,67.15 85.21,66.49 84.38,66.49 L43.26,66.49 C42.43,66.49 41.76,67.16 41.76,67.99 L41.73,84.05 L44.73,84.06 L44.76,69.5 L62.58,69.5 L62.58,86 L64.58,86 L64.58,69.5 L82.89,69.5 L82.98,83.88 L85.98,83.86 L85.88,67.98 Z" fill="#FFFFFF"/>
  <path d="M5.38,50.47 C5.38,50.47 4.42,52.55 4.48,57.05 C4.51,58.88 4.48,89.78 4.48,89.78 L13.45,103.47 L29.14,114.49 L53.79,121.96 L73.2,121.96 L90.75,119.35 L110.54,106.84 L122.86,91.9 C122.86,91.9 122.83,55.91 122.79,55.36 C122.47,50.97 121.6,49.8 121.6,49.8 C121.6,49.8 126.03,64.52 102.6,76.41 C93.71,80.92 79.68,84.53 63.53,84.35 C39.69,84.09 25.38,76.69 18.6,71.2 C4.11,59.46 5.38,50.47 5.38,50.47 Z" fill="#B0B0B0"/>
  <path d="M4.54,93.71 C4.54,93.71 9.76,105.99 26.15,115.24 C35.07,120.27 47.42,124.69 63.73,125.1 C78.46,125.47 92.9,121.19 101.66,115.86 C117.85,106 123.16,93.23 123.16,93.23 L123.11,87 C123.11,87 110.35,119.64 64.2,120.03 C48.74,120.16 35.77,115.94 26.32,110.06 C11.37,100.75 4.46,88.09 4.46,88.09 L4.54,93.71 Z" fill="#858585"/>
  <path d="M4.65,64.35 C4.65,64.35 15.1,90.6 63.68,90.92 C109.86,91.22 122.91,66.43 122.91,66.43 L122.83,61.05 C122.83,61.05 111.16,88.41 63.79,88.02 C14.08,87.62 4.5,58.59 4.5,58.59 L4.65,64.35 Z" fill="#858585"/>
  <path d="M29.21,116.93 C28.89,116.43 29.45,92.76 29.45,91.71 C29.45,90.22 30.68,87.5 34.44,88.73 C37.96,89.88 38.74,93.25 38.74,95.19 C38.74,97.13 38.92,118.69 38.92,119.22 C38.92,119.75 39.07,120.97 38.13,120.72 C37.71,120.6 35.03,119.85 33.28,119.08 C32.15,118.56 29.53,117.42 29.21,116.93 Z" fill="#2F2F2F"/>
  <path d="M10.52,102.72 C10.39,102.2 10.43,83.13 10.43,81.89 C10.43,79.43 12.57,77.55 15.1,79.04 C17.63,80.53 18.92,83.25 18.99,86.88 C19.05,90.51 19.08,109.13 19.14,109.65 C19.2,110.17 18.89,110.53 18.3,110.1 C18.13,109.98 14.86,107.57 13.5,106.21 C12.14,104.86 10.52,102.72 10.52,102.72 Z" fill="#2F2F2F"/>
  <path d="M88.89,121.49 C88.25,121.03 88.5,98.19 88.5,96.63 C88.5,95.07 88.96,90.13 93.56,89.31 C98.62,88.4 98.1,93.72 98.16,95.47 C98.22,97.03 98.47,117.16 98.31,117.67 C98.23,117.93 95.94,118.98 93.68,119.93 C91.8,120.71 89.03,121.58 88.89,121.49 Z" fill="#2F2F2F"/>
  <path d="M108.52,111.06 C108.07,110.98 108.45,89.2 108.54,86.94 C108.64,84.61 109.69,80.46 112.99,79.25 C116.17,78.08 117.15,79.97 117.15,83.02 C117.15,84.9 116.94,102.55 116.88,103 C116.84,103.28 115.49,104.73 113.67,106.6 C111.75,108.58 108.74,111.1 108.52,111.06 Z" fill="#2F2F2F"/>
  <path d="M13.54,47.21 C13.47,47.92 16.98,50.97 17.41,50.93 C17.84,50.89 20.41,48.14 20.41,47.57 C20.41,47 16.89,43.89 16.66,43.93 C16.12,44.03 13.58,46.73 13.54,47.21 Z" fill="#FF7879"/>
  <path d="M29.49,52.45 C29.52,52.99 31.77,57.16 32.61,57.13 C33.66,57.09 36.45,54.91 36.39,54.4 C36.33,53.89 33.96,50.02 33.24,49.93 C32.53,49.85 29.46,51.86 29.49,52.45 Z" fill="#FF7879"/>
  <path d="M18.6,35.98 C18.62,36.36 21.11,40 21.56,39.96 C22.01,39.92 24.79,37.97 24.85,37.45 C24.91,36.86 22.58,33.52 22.01,33.39 C21.44,33.26 18.56,35.25 18.6,35.98 Z" fill="#FF7879"/>
  <path d="M37.54,38.61 C37.51,38.9 39.53,43.76 40.14,43.72 C40.99,43.66 43.9,42.64 43.98,42.12 C44.06,41.59 42.09,36.75 41.73,36.71 C41.37,36.67 37.58,38.21 37.54,38.61 Z" fill="#FF7879"/>
  <path d="M44.88,30.95 C44.75,31.49 45.84,34.37 46.1,34.88 C46.42,35.53 46.99,35.98 48.09,35.69 C48.92,35.47 50.77,34.8 50.85,34.11 C50.93,33.42 49.35,29.65 48.86,29.4 C48.37,29.15 45.04,30.3 44.88,30.95 Z" fill="#FF7879"/>
  <path d="M54.13,34.36 C54.5,34.59 58.5,34.25 58.63,33.95 C58.95,33.22 58.51,28.76 58.06,28.43 C57.61,28.11 53.75,28.42 53.56,28.8 C52.99,29.93 53.48,33.95 54.13,34.36 Z" fill="#FF7879"/>
  <path d="M49.1,46.69 C48.61,47.15 50.19,51.7 50.81,52 C51.53,52.35 54.87,51.12 55.07,50.7 C55.31,50.16 53.68,45.72 53.22,45.58 C52.32,45.32 49.7,46.14 49.1,46.69 Z" fill="#FF7879"/>
  <path d="M70.11,32.15 C69.2,32.85 69.2,37.69 69.65,38.48 C70.02,39.13 73.76,39.22 74.31,38.71 C74.62,38.42 75.1,33.03 74.77,32.52 C74.45,32.01 70.71,31.68 70.11,32.15 Z" fill="#FF7879"/>
  <path d="M79.43,27.25 C78.88,27.8 78.23,33.11 78.6,33.53 C79.16,34.16 82.62,34.55 83.17,34.22 C83.72,33.9 84.79,28.63 84.51,27.85 C84.24,27.07 80.06,26.63 79.43,27.25 Z" fill="#FF7879"/>
  <path d="M80.31,47.3 C79.62,47.53 77.8,53.02 77.91,53.49 C78.19,54.69 81.88,55.66 82.62,55.24 C83.05,55 84.93,49.61 84.84,49.14 C84.74,48.69 81.04,47.06 80.31,47.3 Z" fill="#FF7879"/>
  <path d="M105.66,38.1 C104.6,38.27 101.92,42.63 101.92,43.32 C101.92,44.01 104.78,45.95 105.34,45.86 C105.89,45.77 109.13,40.78 109.13,40.41 C109.13,40.04 106.54,37.96 105.66,38.1 Z" fill="#FF7879"/>
  <path d="M105.76,54.45 C104.93,54.45 100.91,58.51 100.91,59.11 C100.91,59.71 103.22,61.93 104,62.02 C104.78,62.11 108.89,57.91 108.94,57.17 C108.99,56.44 106.59,54.45 105.76,54.45 Z" fill="#FF7879"/>
  <path d="M51.45,124.05 C51.04,123.64 51.5,107.38 51.57,104.7 C51.65,101.45 53.93,92.92 63.99,92.76 C74.06,92.6 76.98,101.86 76.98,104.86 C76.98,107.86 77.15,123.75 76.78,124.24 C76.62,124.46 71.54,125.34 63.74,125.26 C56.34,125.18 51.86,124.45 51.45,124.05 Z" fill="#2F2F2F"/>
</svg>
